assets/front/images/header-search.svg

<svg viewBox="0 0 62.92 62.92" xmlns="http://www.w3.org/2000/svg"><path d="m38.95 38.37 5.11 5.11c.13.13.24.29.32.47s.12.37.12.57c0 .4-.14.74-.42 1.02s-.61.42-.99.42c-.2 0-.39-.04-.57-.12s-.34-.18-.47-.32l-5.14-5.14c-.96.74-2.04 1.33-3.24 1.76-1.2.44-2.46.66-3.78.66-1.59 0-3.08-.3-4.47-.91-1.39-.6-2.6-1.43-3.65-2.47-1.04-1.04-1.86-2.26-2.47-3.65-.58-1.39-.87-2.88-.87-4.47s.29-3.06.87-4.47c.6-1.39 1.43-2.6 2.47-3.63s2.26-1.85 3.65-2.45 2.88-.91 4.47-.91 3.08.3 4.47.91c1.39.6 2.6 1.42 3.65 2.45s1.85 2.24 2.44 3.63c.6 1.41.91 2.9.91 4.47 0 1.34-.21 2.61-.64 3.81-.42 1.2-1.02 2.28-1.78 3.24h.03zm-9.07 1.54c1.19 0 2.31-.22 3.36-.67 1.03-.45 1.94-1.06 2.72-1.83s1.4-1.69 1.85-2.74.67-2.17.67-3.36-.22-2.3-.67-3.33c-.45-1.05-1.06-1.97-1.85-2.74-.78-.77-1.69-1.39-2.72-1.86-1.05-.45-2.17-.67-3.36-.67s-2.31.22-3.36.67c-1.03.47-1.94 1.09-2.72 1.86s-1.4 1.69-1.85 2.74c-.45 1.03-.67 2.14-.67 3.33s.22 2.31.67 3.36 1.06 1.97 1.85 2.74c.78.77 1.69 1.38 2.72 1.83 1.05.45 2.17.67 3.36.67"/><path d="m59.69 32.91c0 15.59-12.64 28.23-28.23 28.23s-28.23-12.63-28.23-28.23 12.64-28.23 28.23-28.23 28.23 12.64 28.23 28.23z" fill="none" stroke="#000" stroke-miterlimit="10" stroke-width=".8"/><path d="m62.52 31.46c0 17.15-13.9 31.06-31.06 31.06s-31.05-13.91-31.05-31.06 13.9-31.05 31.05-31.05 31.06 13.9 31.06 31.06" fill="#fff"/><circle cx="31.46" cy="31.46" fill="none" r="31.06" stroke="#c7c6c6" stroke-miterlimit="10" stroke-width=".81" transform="matrix(.38268343 -.92387953 .92387953 .38268343 -9.64 48.49)"/><path d="m38.95 36.92 5.11 5.11c.13.13.24.29.32.47s.12.37.12.57c0 .4-.14.75-.42 1.03s-.61.42-.99.42c-.2 0-.39-.04-.57-.12s-.34-.19-.47-.32l-5.14-5.14c-.96.74-2.04 1.33-3.24 1.76-1.2.44-2.46.66-3.78.66-1.59 0-3.08-.3-4.47-.91-1.39-.6-2.6-1.43-3.65-2.47-1.04-1.04-1.86-2.26-2.47-3.65-.58-1.39-.87-2.88-.87-4.47s.29-3.06.87-4.47c.6-1.39 1.43-2.6 2.47-3.63s2.26-1.85 3.65-2.45 2.88-.91 4.47-.91 3.08.3 4.47.91c1.39.6 2.6 1.42 3.65 2.45s1.85 2.24 2.44 3.63c.6 1.41.91 2.9.91 4.47 0 1.34-.21 2.61-.64 3.81-.42 1.2-1.02 2.28-1.78 3.24h.03zm-9.07 1.54c1.19 0 2.31-.22 3.36-.67 1.03-.45 1.94-1.06 2.72-1.83s1.4-1.69 1.85-2.74.67-2.17.67-3.36-.22-2.3-.67-3.33c-.45-1.05-1.06-1.97-1.85-2.74-.78-.77-1.69-1.39-2.72-1.86-1.05-.45-2.17-.67-3.36-.67s-2.31.22-3.36.67c-1.03.47-1.94 1.09-2.72 1.86s-1.4 1.69-1.85 2.74c-.45 1.03-.67 2.14-.67 3.33s.22 2.31.67 3.36 1.06 1.97 1.85 2.74c.78.77 1.69 1.38 2.72 1.83 1.05.45 2.17.67 3.36.67"/><path d="m59.69 31.46c0 15.59-12.64 28.23-28.23 28.23s-28.23-12.64-28.23-28.23 12.64-28.23 28.23-28.23 28.23 12.64 28.23 28.23z" fill="none" stroke="#000" stroke-miterlimit="10" stroke-width=".8"/></svg>

<?xml version="1.0" encoding="UTF-8" standalone="no"?>
<!DOCTYPE svg PUBLIC "-//W3C//DTD SVG 1.1//EN" "http://www.w3.org/Graphics/SVG/1.1/DTD/svg11.dtd">
<svg width="100%" height="100%" viewBox="0 0 256 256" version="1.1" xmlns="http://www.w3.org/2000/svg" xmlns:xlink="http://www.w3.org/1999/xlink" xml:space="preserve" xmlns:serif="http://www.serif.com/" style="fill-rule:evenodd;clip-rule:evenodd;stroke-linecap:round;stroke-linejoin:round;stroke-miterlimit:1.5;">
    <g transform="matrix(12.4028,0,0,12.1746,-237.914,-200.431)">
        <ellipse cx="29.502" cy="26.977" rx="9.836" ry="10.021" style="fill:none;stroke:black;stroke-width:0.68px;"/>
    </g>
    <g transform="matrix(4.60299,0,0,4.60299,-16.8331,-16.8101)">
        <path d="M38.95,36.92L44.06,42.03C44.19,42.16 44.3,42.32 44.38,42.5C44.46,42.68 44.5,42.87 44.5,43.07C44.5,43.47 44.36,43.82 44.08,44.1C43.8,44.38 43.47,44.52 43.09,44.52C42.89,44.52 42.7,44.48 42.52,44.4C42.34,44.32 42.18,44.21 42.05,44.08L36.91,38.94C35.95,39.68 34.87,40.27 33.67,40.7C32.47,41.14 31.21,41.36 29.89,41.36C28.3,41.36 26.81,41.06 25.42,40.45C24.03,39.85 22.82,39.02 21.77,37.98C20.73,36.94 19.91,35.72 19.3,34.33C18.72,32.94 18.43,31.45 18.43,29.86C18.43,28.27 18.72,26.8 19.3,25.39C19.9,24 20.73,22.79 21.77,21.76C22.81,20.73 24.03,19.91 25.42,19.31C26.81,18.71 28.3,18.4 29.89,18.4C31.48,18.4 32.97,18.7 34.36,19.31C35.75,19.91 36.96,20.73 38.01,21.76C39.06,22.79 39.86,24 40.45,25.39C41.05,26.8 41.36,28.29 41.36,29.86C41.36,31.2 41.15,32.47 40.72,33.67C40.3,34.87 39.7,35.95 38.94,36.91L38.97,36.91L38.95,36.92ZM29.88,38.46C31.07,38.46 32.19,38.24 33.24,37.79C34.27,37.34 35.18,36.73 35.96,35.96C36.74,35.19 37.36,34.27 37.81,33.22C38.26,32.17 38.48,31.05 38.48,29.86C38.48,28.67 38.26,27.56 37.81,26.53C37.36,25.48 36.75,24.56 35.96,23.79C35.18,23.02 34.27,22.4 33.24,21.93C32.19,21.48 31.07,21.26 29.88,21.26C28.69,21.26 27.57,21.48 26.52,21.93C25.49,22.4 24.58,23.02 23.8,23.79C23.02,24.56 22.4,25.48 21.95,26.53C21.5,27.56 21.28,28.67 21.28,29.86C21.28,31.05 21.5,32.17 21.95,33.22C22.4,34.27 23.01,35.19 23.8,35.96C24.58,36.73 25.49,37.34 26.52,37.79C27.57,38.24 28.69,38.46 29.88,38.46" style="fill-rule:nonzero;"/>
    </g>
</svg>
